src/assets/images/twitter.svg

<?xml version="1.0" encoding="UTF-8"?>
<svg width="26px" height="20px" viewBox="0 0 26 20" version="1.1" xmlns="http://www.w3.org/2000/svg" xmlns:xlink="http://www.w3.org/1999/xlink">
    <title>twitter-icon</title>
    <g id="Welcome" stroke="none" stroke-width="1" fill="none" fill-rule="evenodd">
        <g id="Contact" transform="translate(-16.000000, -69.000000)" fill="#FFFFFF" fill-rule="nonzero">
            <g id="Icons" transform="translate(16.000000, 69.000000)">
                <g id="twitter-icon">
                    <path d="M26,2.39203186 C25.024034,2.79488694 23.9940998,3.06429637 22.940269,3.19239405 C24.0576763,2.56691492 24.8961246,1.56791749 25.2954904,0.386185888 C24.2423181,0.97657649 23.0932231,1.3924479 21.8963607,1.61637221 C20.3994055,0.0912066019 18.0893545,-0.409573727 16.055745,0.350224631 C14.0221356,1.11002299 12.6711697,2.97863457 12.6400316,5.07472733 C12.6471973,5.4627258 12.6989349,5.84877783 12.7943037,6.22586554 C8.5234665,6.03159163 4.53726931,4.11136092 1.82041139,0.939522709 C1.347171,1.70916239 1.09352381,2.5850783 1.08504746,3.47894347 C1.09055186,5.17254047 1.98117867,6.75022086 3.45569621,7.67837468 C2.60505804,7.66533986 1.77107438,7.44975189 1.02848101,7.05093026 L1.02848101,7.12009735 C1.03370727,7.73588714 1.16292915,8.34488562 1.40901898,8.91350152 C2.07941089,10.5245309 3.55508189,11.6985338 5.32753164,12.0309617 C4.86892435,12.1547821 4.39488456,12.2179436 3.91851265,12.2187009 C3.58119272,12.216696 3.24504936,12.180261 2.91574366,12.1100098 C3.63676494,14.1745568 5.62751963,15.5833173 7.89359175,15.6325915 C6.00099126,17.0414792 3.6747125,17.8061574 1.28045886,17.8064147 C0.84335443,17.8064147 0.437104431,17.7767717 0,17.7372476 C2.45011624,19.2144439 5.2838183,19.9986457 8.17642404,20 C16.5071202,20 21.6546677,14.4616913 22.9968354,8.7010597 C23.2321097,7.7006997 23.3511132,6.67834588 23.3516614,5.6527667 L23.3516614,5.00556022 C24.3850304,4.28798568 25.2810797,3.40371429 26,2.39203186 Z" id="Path"></path>
                </g>
            </g>
        </g>
    </g>
</svg>

<svg xmlns="http://www.w3.org/2000/svg" width="26" height="20"  xmlns:v="https://vecta.io/nano"><path d="M26 2.392a11.73 11.73 0 0 1-3.06.8A5.1 5.1 0 0 0 25.295.386c-1.053.59-2.202 1.006-3.399 1.23C20.399.091 18.089-.41 16.056.35s-3.385 2.628-3.416 4.725c.007.388.059.774.154 1.151C8.523 6.032 4.537 4.111 1.82.94c-.473.77-.727 1.646-.735 2.539.006 1.694.896 3.271 2.371 4.199-.851-.013-1.685-.229-2.427-.627v.069a4.61 4.61 0 0 0 .381 1.793c.67 1.611 2.146 2.785 3.919 3.117a5.44 5.44 0 0 1-1.409.188 4.95 4.95 0 0 1-1.003-.109c.721 2.065 2.712 3.473 4.978 3.523-1.893 1.409-4.219 2.174-6.613 2.174-.437 0-.843-.03-1.28-.069C2.45 19.214 5.284 19.999 8.176 20c8.331 0 13.478-5.538 14.82-11.299.235-1 .354-2.023.355-3.048v-.647c1.033-.718 1.929-1.602 2.648-2.614z" fill="#fff"/></svg>
